src/cui/assets/icons/all-done.svg

<svg width="24" height="24" viewBox="0 0 24 24" fill="none" xmlns="http://www.w3.org/2000/svg">
<path fill-rule="evenodd" clip-rule="evenodd" d="M16.6162 6.2129C16.1822 5.8709 15.5542 5.9489 15.2132 6.3839L8.1582 15.3919L4.7792 11.1949C4.4312 10.7659 3.8032 10.6959 3.3732 11.0429C2.9422 11.3899 2.8752 12.0199 3.2202 12.4489L7.3892 17.6269C7.5802 17.8629 7.8662 17.9999 8.1692 17.9999H8.1762C8.4802 17.9979 8.7682 17.8569 8.9562 17.6159L16.7872 7.6159C17.1282 7.1819 17.0522 6.5529 16.6162 6.2129ZM8.7129 13.0605L9.9799 11.4445L9.7789 11.1955C9.4329 10.7655 8.8039 10.6965 8.3729 11.0425C7.9419 11.3895 7.8749 12.0195 8.2209 12.4495L8.7129 13.0605ZM20.2132 6.3839C20.5542 5.9489 21.1812 5.8709 21.6162 6.2129C22.0522 6.5529 22.1282 7.1819 21.7872 7.6159L13.9562 17.6159C13.7682 17.8569 13.4802 17.9979 13.1762 17.9999H13.1692C12.8662 17.9999 12.5802 17.8629 12.3892 17.6269L11.2892 16.2599L12.5542 14.6429L13.1582 15.3919L20.2132 6.3839Z" fill="#199861"/>
<mask id="mask0_4742_8250" style="mask-type:alpha" maskUnits="userSpaceOnUse" x="2" y="5" width="21" height="13">
<path fill-rule="evenodd" clip-rule="evenodd" d="M16.6162 6.2129C16.1822 5.8709 15.5542 5.9489 15.2132 6.3839L8.1582 15.3919L4.7792 11.1949C4.4312 10.7659 3.8032 10.6959 3.3732 11.0429C2.9422 11.3899 2.8752 12.0199 3.2202 12.4489L7.3892 17.6269C7.5802 17.8629 7.8662 17.9999 8.1692 17.9999H8.1762C8.4802 17.9979 8.7682 17.8569 8.9562 17.6159L16.7872 7.6159C17.1282 7.1819 17.0522 6.5529 16.6162 6.2129ZM8.7129 13.0605L9.9799 11.4445L9.7789 11.1955C9.4329 10.7655 8.8039 10.6965 8.3729 11.0425C7.9419 11.3895 7.8749 12.0195 8.2209 12.4495L8.7129 13.0605ZM20.2132 6.3839C20.5542 5.9489 21.1812 5.8709 21.6162 6.2129C22.0522 6.5529 22.1282 7.1819 21.7872 7.6159L13.9562 17.6159C13.7682 17.8569 13.4802 17.9979 13.1762 17.9999H13.1692C12.8662 17.9999 12.5802 17.8629 12.3892 17.6269L11.2892 16.2599L12.5542 14.6429L13.1582 15.3919L20.2132 6.3839Z" fill="white"/>
</mask>
<g mask="url(#mask0_4742_8250)">
</g>
</svg>

<svg fill="none" height="24" viewBox="0 0 24 24" width="24" xmlns="http://www.w3.org/2000/svg"><mask height="13" maskUnits="userSpaceOnUse" width="21" x="2" y="5"><path clip-rule="evenodd" d="m16.6162 6.2129c-.434-.342-1.062-.264-1.403.171l-7.055 9.008-3.379-4.197c-.348-.429-.976-.499-1.406-.152-.431.347-.498.977-.153 1.406l4.169 5.178c.191.236.477.373.78.373h.007c.304-.002.592-.143.78-.384l7.831-10c.341-.434.265-1.063-.171-1.403zm-7.9033 6.8476 1.267-1.616-.201-.249c-.346-.43-.975-.499-1.406-.153-.431.347-.498.977-.152 1.407zm11.5003-6.6766c.341-.435.968-.513 1.403-.171.436.34.512.969.171 1.403l-7.831 10c-.188.241-.476.382-.78.384h-.007c-.303 0-.589-.137-.78-.373l-1.1-1.367 1.265-1.617.604.749z" fill="#fff" fill-rule="evenodd"/></mask><path clip-rule="evenodd" d="m16.6162 6.2129c-.434-.342-1.062-.264-1.403.171l-7.055 9.008-3.379-4.197c-.348-.429-.976-.499-1.406-.152-.431.347-.498.977-.153 1.406l4.169 5.178c.191.236.477.373.78.373h.007c.304-.002.592-.143.78-.384l7.831-10c.341-.434.265-1.063-.171-1.403zm-7.9033 6.8476 1.267-1.616-.201-.249c-.346-.43-.975-.499-1.406-.153-.431.347-.498.977-.152 1.407zm11.5003-6.6766c.341-.435.968-.513 1.403-.171.436.34.512.969.171 1.403l-7.831 10c-.188.241-.476.382-.78.384h-.007c-.303 0-.589-.137-.78-.373l-1.1-1.367 1.265-1.617.604.749z" fill="#199861" fill-rule="evenodd"/></svg>
